X:984
T:Ril
T:(i.e. Reel in Swedish)
C:anon.
O:Sweden
A:Sk\aane
S:From the tunebook of fiddler Johannes Nord (1832-1921)
B:Svenska L\aatar Sk\aane 732
R:Reel, ril
F:http://abc.musicaviva.com/tunes/sweden/ril-130100.abc
%Posted Jan 13th 2000 at abcusers by Sigfrid Lundberg
%Proofread by Frank Nordberg
M:2/4
L:1/8
K:D
A/2d/2|fd AG|F/2A/2d/2f/2 A/2d/2f/2a/2|ge cA|\
^G/2A/2B/2c/2 d/2c/2d/2e/2|
fd AG|F/2A/2d/2f/2 A/2d/2f/2a/2|ge cA |\
[1 ^G/2A/2B/2c/2 d :|[2^G/2A/2B/2c/2 d z|:ff/2f/2 f/2d/2A/2d/2|
f/2d/2A/2d/2 f/2g/2a/2f/2|gg/2g/2 g/2e/2c/2e/2|\
a/2g/2e/2c/2 d/2c/2d/2e/2|ff/2f/2 f/2d/2A/2d/2|
f/2d/2A/2d/2 f/2g/2a/2f/2|gg/2g/2 g/2e/2c/2e/2|\
[1a/2g/2e/2c/2 d z:|[2a/2g/2e/2c/2 d ||
W:
W:
W:  From Musica Viva - http://www.musicaviva.com
W:  the Internet center for free sheet music downloads.
